X:1
T:Title
%%score { 1 | ( 2 3 ) }
L:1/8
M:3/4
K:D
V:1 treble nm="Grand Piano"
V:2 bass 
V:3 bass 
V:1
 z2 z2[Q:1/4=92] [FA]>[FA] | [FA]3- [FA]/[FA]/ (3[FA][GB][Gc] | [Fd]2 [FA]2 [DF]>[DA] | %3
 [CA]3- [CA]/[CG]/ [CF]>[CE] |[M:2/4] [DF]4 |[M:1/4] [FA]>[FA] | %6
[M:3/4] [FA]3- [FA]/[FA]/ (3[FA][GB][Gc] | [Fd]2 [FA]2 [Fd]>[Fd] | c3- c/B/ A>^G |[M:2/4] [CEA]4 | %10
[M:1/4] A>A |[M:3/4] e3- e/c/ B>A | [Fd]3- [Fd]/F/ F>F | [DB]2 [DB]>[Fd] [Ec]>[DB] | %14
[M:5/8] [Fc]2 [Fc]3 |[M:1/4] (3[C-G-A][CG][Gc] |[M:3/4] (3[Fd][Fd][Fd] [Fd]>[FA] F>[Fd] | %17
 [Ac]B B2 e2 | dd d2 [Ec]2 |[M:2/4] [Fd]4 |] %20
V:2
 z2 z2 [D,D]>[D,D] | [D,D]3- [D,D]/[D,D]/ (3:2:2[D,A,]2 [D,A,] | [D,A,]2 [D,D]2 [D,A,]>[D,F,] | %3
 [A,,E,]3- [A,,E,]/[A,,E,]/ [A,,A,]>[A,,A,] |[M:2/4] [D,A,]4 |[M:1/4] [D,D]>[D,D] | %6
[M:3/4] [D,D]3- [D,D]/[D,D]/ (3:2:2[D,A,]2 [D,A,] | [D,A,]2 [D,D]2 [D,A,]>[D,A,] | %8
 [E,A,E]3- [E,A,E]/[E,DE]/ [E,CE]>[E,B,E] |[M:2/4] A,,4 |[M:1/4][K:treble] [A,CE]>[A,CE] | %11
[M:3/4] [A,CG]3- [A,CG]/[A,EG]/ [A,DG]>[A,CG] | [D,A,]3- [D,A,]/F,/ F,>F, | %13
 [B,,F,]2 [B,,F,]>[B,,F,] [B,,F,]>[B,,B,] |[M:5/8] [F,^A,]2 [F,A,]3 |[M:1/4] (3E,-[E,B][E,A,] | %16
[M:3/4] (3[D,A,][D,A,][D,A,] [D,A,]>[D,D] [D,D]>[D,D] | z G [G,DG]2 [G,B,G]2 | %18
 [A,F][A,F] [A,F]2[K:bass] [A,,A,]2 |[M:2/4] [D,A,]4 |] %20
V:3
 x6 | x6 | x6 | x6 |[M:2/4] x4 |[M:1/4] x2 |[M:3/4] x6 | x6 | x6 |[M:2/4] x4 | %10
[M:1/4][K:treble] x2 |[M:3/4] x6 | x6 | x6 |[M:5/8] x5 |[M:1/4] x2 |[M:3/4] x6 | [G,D]2 z2 z2 | %18
 x4[K:bass] x2 |[M:2/4] x4 |] %20

